X: 1
T:Leaving Lunga  "CYMRU"
M:C|
L:1/8
Q:80
C:J. Gordon
S:March
K:HP
|: {gcd}c3/4B/4|
{GAG}A{ag}a{g}a3/2e/2|
{gfg}f3/4e/4{g}f/4a3/4{ef}e2|  !
{g}A{GdGe}A3/4B/4{g}c/4{d}A3/4{g}c/4e3/4|
{Gdc}d3/4f/4{gef}e3/4c/4{g}B/4d3/4{gcd}c3/4B/4| |
{GAG}A{ag}a{g}a3/2e/2|  !
{gfg}f3/4e/4{g}f/4a3/4{ef}e2|
{g}c{GdG}e3/4c/4{g}B/4d3/4{gcd}c3/4B/4|
{g}A2{GAG}A:| |:  !
{g}c3/4d/4|
{gef}e3/4d/4{gcd}c3/4B/4{GAG}Aa3/4g/4|
{fg}f3/4e/4{g}f/4a3/4{Gdc}d{g}c3/4d/4|  !
{g}e3/4f/4{gef}e3/4c/4{g}A3/4B/4{g}c/4{d}A3/4|
{g}c/4e3/4{gef}e3/4c/4{gBd}B{g}c/4d3/4| |
{gef}e3/4d/4{gcd}c3/4B/4{GAG}Aa3/4g/4|  !
{fg}f3/4e/4{g}f/4a3/4{Gdc}d3/2{ag}a/2|
{g}c{GdG}e3/4c/4{g}B/4d3/4{gcd}c3/4B/4|
{g}A2{GAG}A:| |:  !
{gcd}c3/4B/4|
{GAG}A{ag}a{g}a3/2e/2|
{gfg}f3/4e/4{g}f/4g3/4{ag}a2|  !
c{GdGe}A3/4c/4{GAG}A{gef}e3/4A/4|
{g}f3/4e/4{gde}d3/4c/4{g}B/4a3/4{de}d3/4B/4| |
{g}c{GdG}e3/4f/4{gef}e3/4A/4{gef}e3/4c/4|  !
{Gdc}d3/4e/4{g}f3/4a/4{g}a3/4g/4{a}f/4a3/4|
{g}c{GdG}e3/4c/4{g}B/4d3/4{gcd}c3/4B/4|
{g}A2{GAG}A:| |:  !
{g}f/4g3/4|
{ag}a2{g}ae3/4d/4|
{g}c/4{d}A3/4{g}c/4e3/4{g}f3/4e/4{g}c/4e3/4|  !
a{GdG}a3/4d/4{g}c/4{d}A3/4{g}c/4e3/4|
{Gdc}d3/4f/4{gef}e3/4c/4|1 {gBd}B{g}f/4g3/4|1 |
{ag}a2{g}ae3/4d/4|  !
{g}c/4{d}A3/4{g}c/4e3/4{g}f3/4e/4{g}c/4e3/4|
{g}c{GdG}e3/4c/4{g}B/4d3/4{gcd}c3/4B/4|
{g}A2{GAG}A:|2 |  !
{g}B/4d3/4{gcd}c3/4B/4|
{GAG}A{ag}a{g}a3/2e/2|
{gfg}f3/4e/4{g}f/4a3/4{ef}e2|  !
{g}c{GdG}e3/4c/4{g}B/4d3/4{gcd}c3/4B/4|
{g}A2{GAG}A|]
